!!!SOCIAL_FUNCTION: miscellaneous dance songs
!!!SOCIAL_FUNCTION2: stomp dance
!!!PDT:	1943
!!!LING_GROUP: Muskogean
!!!LANG: Non-Tone
Specific Region: Oklahoma, California, Mississippi, Louisiana, Texas, Alabama
!!!REG: Southeast
!!!COM: Anon.
!!!OTL: Stomp Dance Song (l)
!!!ODT: <1933//
!!!MPN: Olman Comby
!!!MLC: Philadelphia, Mississippi, United States of America
!! Song was recorded in January 1933.
!!!AGN: monody
!!!AMT: irregular
!!!RWG: Transcribed pitches, durations, and meters are only approximate.
**kern
*ICvox
*Imale
*clefF4
*k[b-e-]
*M2/4
*MM69
*[A,B,B]
*>A
=1-
8B-
16G
16F
16G
16G
16G
16r
*M3/4
=2
8.B-
16c
8B-
8G
16B-
16B-
16B-
16r
*M2/4
=3
8B-
16G
16F
16G
16G
16G
16r
*M7/8
=4
8.B-
16c
8B-
16G
16G
16B-
16B-
16B-
16r
8r
*M5/8
=5
8B-
16G
16F
16G
16G
16G
16r
8G
*M2/4
=6
8.d
16B-
16c
16c
16c
16r
=7
8B-
16G
16F
16G
16G
16G
16r
*>B
*M3/4
=!|:8
8.d
16B-
8c
16B-
16G
16B-
16B-
16B-
16r
*M2/4
=9
8B-
16G
16F
16G
16G
16G
16r
*M3/4
=10
8.F
16F
16F
16F
8F
16c
16c
16c
16r
*M2/4
=11
8B-
16G
16F
16G
16G
16G
16r
==:|!
*-
!!!CNT: Choctaw
!!!TXO: Choctaw
!!!OCY: United States
!!!OCL: Frances Densmore
!!!YOR: Frances Densmore, "Choctaw Music"
!!!YOR: Bulletin 136, page 171, No. 55
!!!PPR: Smithsonian Institution, Bureau of American Ethnology
!!!PPR: Government Printing Office
!!!PDT: 1943
!!!PPP: Washington, DC, United States of America
!!!YEC: Electronic Copyright 2000 David Huron
!!!YER: August 2000
!!!YEN: United States of America
!!!ENC: David Huron
!!!RDT: August 29, 2000
!!!EEV: Release 1.0
!!!AIN: vox
